X:1
T:Le bon roi Dagobert
C:Chanson populaire  (Sol) , fichier abc : Bernard Loffet
L:1/8
Q:330
M:3/4
K:C
 z4 [B2G,2] | [B2G,2] G,2 [A2D,2] | [A2D,2] D,2 [G2G,2] | [G2G,2] G,2 G,2 | [A2D,2] D,2 D,2 | \
 [B2G,2] [c2D,2] [B2G,2] | [A2D,2] [G2G,2] [A2D,2] | [G2G,2] G,2 G,2 | G,2 [G2G,2] [A2D,2] | \
 [B2G,2] G,2 [B2G,2] | [B2G,2] [c2D,2] [B2G,2] | [A2D,2] D,2 [A2D,2] | [A2D,2] [G2G,2] [A2D,2] | \
 [B2G,2] G,2 [B2G,2] | [B2G,2] [c2D,2] [B2G,2] | [A2D,2] D,2 [A2D,2] | [A2D,2] D,2 [B2G,2] | \
 [B2G,2] G,2 [A2D,2] | [A2D,2] D,2 [G2G,2] | [G2G,2] G,2 G,2 | [A2D,2] D,2 D,2 | [B2G,2] [c2D,2] [B2G,2] | \
 [A2D,2] [G2G,2] [A2D,2] | [G2G,2] G,2 G,2 | G,2 G,4 | \
Z:Created with TablEdit http://www.tabledit.com/ by Bernard Loffet
